X: 7
T: The Drunken Landlady
R: reel
M: 4/4
L: 1/8
%Z: Modified by Megan Ward
K: Edor
|:BE E2 BEFA|B2 dB BAFB|ABAF D2A,D|FGAd BAFA|
BE E2 BEFA|B2 dB BAFB|A2 AB defe|dBAF E2GA:||
|:Beed e2 de|f2 df efdB|ABAF D2A,D|FGAd BAFA|
Beed e2 de|f2 df efdB|A2 AB defe|dBAF E4:||
